X: 11009
T: Drunken Sailor's, The
R: hornpipe
M: 4/4
K: Edorian
|:(3EF^G|AA AB AB cd|ed cB AG EF|~G3A GA Bc|dB GB ed cB|
A3B AB cd|ed cB AG EF|G2 (3fga ge (3dcB|c2 A2 A2:|
|:AB|~c3B cd ef|gd Bc dB Gc|BG dG eG dG|BG dG ed cB|
~c3B cd ef|gd Bc dB GB|A2 (3fga ge (3dcB|c2 A2 A2:|
|:ce|~a3^g ~a2 ga|ba gf e3d|ed ad bd ad|gd ad ba gf|
e2 a2 a2 ga|ba gf e3d|eg fa ge (3dcB|c2 A2 A2:|
|:AG|Ac ec Ac ec|GB dB GB dB|Ac ec Ac ec|e2 e=f ed cB|
Ac ec Acec|GB dB GB dB|eg fa ge (3dcB|c2 A2 A2:|
|:ce|ae (3abc' ae (3abc'|gd (3gab gd (3gab|ae (3abc' ae ef|ge dB ec dB|
cB cA BA BG|cB ce dG Bd|eg fa ge (3dcB|c2 A2 A2:|

